svg/other/yinyang_line.svg

<?xml version="1.0" encoding="UTF-8"?>
<svg width="24px" height="24px" viewBox="0 0 24 24" version="1.1" xmlns="http://www.w3.org/2000/svg" xmlns:xlink="http://www.w3.org/1999/xlink">
    <title>yinyang_line</title>
    <g id="Icon" stroke="none" stroke-width="1" fill="none" fill-rule="evenodd">
        <g id="Business" transform="translate(-576.000000, -480.000000)" fill-rule="nonzero">
            <g id="yinyang_line" transform="translate(576.000000, 480.000000)">
                <path d="M24,0 L24,24 L0,24 L0,0 L24,0 Z M12.5935,23.2578 L12.5819,23.2595 L12.5109,23.295 L12.4919,23.2987 L12.4767,23.295 L12.4057,23.2595 C12.3958,23.2564 12.387,23.259 12.3821,23.2649 L12.378,23.2758 L12.3609,23.7031 L12.3659,23.7235 L12.3769,23.7357 L12.4805,23.8097 L12.4953,23.8136 L12.5071,23.8097 L12.6107,23.7357 L12.6233,23.7197 L12.6267,23.7031 L12.6096,23.2758 C12.6076,23.2657 12.601,23.2593 12.5935,23.2578 Z M12.8584,23.1453 L12.8445,23.1473 L12.6598,23.2397 L12.6499,23.2499 L12.6472,23.2611 L12.6651,23.6906 L12.6699,23.7034 L12.6784,23.7105 L12.8793,23.8032 C12.8914,23.8069 12.9022,23.803 12.9078,23.7952 L12.9118,23.7812 L12.8777,23.1665 C12.8753,23.1546 12.8674,23.147 12.8584,23.1453 Z M12.143,23.1473 C12.1332,23.1424 12.1222,23.1453 12.1156,23.1526 L12.1099,23.1665 L12.0758,23.7812 C12.0751,23.7927 12.0828,23.8019 12.0926,23.8046 L12.1083,23.8032 L12.3092,23.7105 L12.3186,23.7024 L12.3225,23.6906 L12.3404,23.2611 L12.3372,23.2485 L12.3278,23.2397 L12.143,23.1473 Z" id="MingCute"></path>
                <path d="M12,2 C17.5228,2 22,6.47715 22,12 C22,17.5228 17.5228,22 12,22 C6.47715,22 2,17.5228 2,12 C2,6.47715 6.47715,2 12,2 Z M8.44107,4.83325 C5.80873,6.14296 4,8.86025 4,12 C4,15.702 6.5146,18.8168 9.92895,19.7293 L9.92947,19.7274 C11.7966,20.2277 13.7158,19.1196 14.2161,17.2525 C14.6997233,15.4476367 13.6803862,13.5940888 11.9253485,13.0206052 L11.7412,12.9659 C8.80714,12.1797 7.06594,9.16388 7.85212,6.22982 C7.98684,5.72703 8.18703,5.25927 8.44107,4.83325 Z M9.78397,6.74745 C9.30034667,8.55234233 10.3196184,10.4059099 12.0746517,10.9793947 L12.2588,11.0341 C15.1929,11.8202 16.9341,14.8361 16.1479,17.7702 C16.0132,18.2729 15.813,18.7407 15.559,19.1667 C18.1913,17.857 20,15.1397 20,12 C20,8.29797 17.4854,5.18324 14.0711,4.27068 L14.0706,4.27258 C12.2034,3.77228 10.2843,4.88032 9.78397,6.74745 Z M10.7406,14.7684 C11.5408,14.9828 12.0157,15.8053 11.8013,16.6055 C11.5869,17.4057 10.7643,17.8805 9.96415,17.6661 C9.16395,17.4517 8.68907,16.6292 8.90349,15.829 C9.1179,15.0288 9.9404,14.5539 10.7406,14.7684 Z M14.0359,6.33396 C14.8361,6.54837 15.3109,7.37087 15.0965,8.17107 C14.8821,8.97127 14.0596,9.44615 13.2594,9.23173 C12.4592,9.01732 11.9843,8.19481 12.1988,7.39462 C12.4132,6.59442 13.2357,6.11954 14.0359,6.33396 Z" id="形状" fill="#09244B"></path>
            </g>
        </g>
    </g>
</svg>

<svg xmlns="http://www.w3.org/2000/svg" width="24" height="24"><g fill="none" fill-rule="nonzero"><path d="M24 0v24H0V0h24ZM12.594 23.258l-.012.002-.071.035-.02.004-.014-.004-.071-.036c-.01-.003-.019 0-.024.006l-.004.01-.017.428.005.02.01.013.104.074.015.004.012-.004.104-.074.012-.016.004-.017-.017-.427c-.002-.01-.009-.017-.016-.018Zm.264-.113-.014.002-.184.093-.01.01-.003.011.018.43.005.012.008.008.201.092c.012.004.023 0 .029-.008l.004-.014-.034-.614c-.003-.012-.01-.02-.02-.022Zm-.715.002a.023.023 0 0 0-.027.006l-.006.014-.034.614c0 .012.007.02.017.024l.015-.002.201-.093.01-.008.003-.011.018-.43-.003-.012-.01-.01-.184-.092Z"/><path fill="#09244B" d="M12 2c5.523 0 10 4.477 10 10s-4.477 10-10 10S2 17.523 2 12 6.477 2 12 2ZM8.441 4.833A8.003 8.003 0 0 0 9.93 19.73v-.002a3.5 3.5 0 0 0 1.996-6.706l-.184-.055a5.5 5.5 0 0 1-3.3-8.133Zm1.343 1.914a3.5 3.5 0 0 0 2.29 4.232l.185.055a5.5 5.5 0 0 1 3.3 8.133A8.003 8.003 0 0 0 14.071 4.27v.002a3.5 3.5 0 0 0-4.287 2.474Zm.957 8.021a1.5 1.5 0 1 1-.777 2.898 1.5 1.5 0 0 1 .777-2.898Zm3.295-8.434a1.5 1.5 0 1 1-.777 2.898 1.5 1.5 0 0 1 .777-2.898Z"/></g></svg>
